X: 10835
T: Dreaming Of The Bones, The
R: reel
M: 4/4
K: Eminor
|:G2 F2 E2|JB12{c/}BAJB2-|B16-|B12z2 FG|JA6 cB {c/}A6FG|
JA6 cB {c/}A6z2|JE6{A/}E2 _D2 E2 F2 G2|JF4-{A/}F{A/}F E JE-E6z2:|
D16-|D8JG8-|{A/}G>FE12z2|B2Jc2B2{c/}A2G2D6-|D16
J{A/}G4JGJ{A/}GJGJ{A/}GJ{A/}G2FE-E4-|E12z4|B2Jc2B2{c/}A2G2{FG}F6-|JF8|J{A/}G16|JE16|

